src/apps/scalable/logview.svg

<?xml version="1.0" encoding="UTF-8" standalone="no"?>
<svg
   xmlns:dc="http://purl.org/dc/elements/1.1/"
   xmlns:cc="http://creativecommons.org/ns#"
   xmlns:rdf="http://www.w3.org/1999/02/22-rdf-syntax-ns#"
   xmlns:svg="http://www.w3.org/2000/svg"
   xmlns="http://www.w3.org/2000/svg"
   xmlns:sodipodi="http://sodipodi.sourceforge.net/DTD/sodipodi-0.dtd"
   xmlns:inkscape="http://www.inkscape.org/namespaces/inkscape"
   inkscape:version="1.0 (4035a4fb49, 2020-05-01)"
   sodipodi:docname="logview.svg"
   id="svg61"
   viewBox="0 0 16.933 16.933"
   version="1.1"
   height="64"
   width="64">
  <sodipodi:namedview
     inkscape:current-layer="svg61"
     inkscape:window-maximized="1"
     inkscape:window-y="36"
     inkscape:window-x="0"
     inkscape:cy="32.91332"
     inkscape:cx="-13.142782"
     inkscape:zoom="5.9609374"
     showgrid="false"
     id="namedview63"
     inkscape:window-height="932"
     inkscape:window-width="1920"
     inkscape:pageshadow="2"
     inkscape:pageopacity="0"
     guidetolerance="10"
     gridtolerance="10"
     objecttolerance="10"
     borderopacity="1"
     bordercolor="#666666"
     pagecolor="#ffffff"
     inkscape:document-rotation="0" />
  <defs
     id="defs7">
    <linearGradient
       gradientUnits="userSpaceOnUse"
       gradientTransform="matrix(0.53034,0,0,0.53034,-8.6275,335.51)"
       y2="-100.78"
       y1="-137.82"
       x2="-6.1472"
       x1="-6.1472"
       id="a-3">
      <stop
         id="stop2"
         offset="0"
         stop-color="#969696" />
      <stop
         id="stop4"
         offset="1"
         stop-color="#555" />
    </linearGradient>
    <filter
       id="filter2761"
       x="-.024"
       y="-.024"
       width="1.048"
       height="1.048"
       color-interpolation-filters="sRGB">
      <feGaussianBlur
         stdDeviation="0.14552168"
         id="feGaussianBlur890" />
    </filter>
    <linearGradient
       id="linearGradient4673"
       x1="1.2573"
       x2="15.644"
       y1="15.429"
       y2="1.1082"
       gradientTransform="translate(-6.9967737e-4,0.14040016)"
       gradientUnits="userSpaceOnUse">
      <stop
         stop-color="#a0b9cd"
         offset="0"
         id="stop893" />
      <stop
         stop-color="#96b4c8"
         offset=".47728"
         id="stop895" />
      <stop
         stop-color="#a0b9cd"
         offset="1"
         id="stop897" />
    </linearGradient>
    <filter
       id="filter917"
       x="-.083994"
       y="-.084006"
       width="1.168"
       height="1.168"
       color-interpolation-filters="sRGB">
      <feGaussianBlur
         stdDeviation="0.22223482"
         id="feGaussianBlur900" />
    </filter>
  </defs>
  <metadata
     id="metadata9">
    <rdf:RDF>
      <cc:Work
         rdf:about="">
        <dc:format>image/svg+xml</dc:format>
        <dc:type
           rdf:resource="http://purl.org/dc/dcmitype/StillImage" />
        <dc:title></dc:title>
      </cc:Work>
    </rdf:RDF>
  </metadata>
  <circle
     cx="-349.1933"
     cy="-328.50299"
     r="0"
     fill="#5e4aa6"
     stroke-width="0.26458"
     id="circle17" />
  <circle
     cx="-58.266289"
     cy="6.3100023"
     r="0"
     fill="#5e4aa6"
     fill-rule="evenodd"
     stroke-width="0.26458"
     id="circle19" />
  <circle
     cx="-369.32327"
     cy="-328.00299"
     r="0"
     fill="#5e4aa6"
     stroke-width="0.26458"
     id="circle55" />
  <circle
     cx="-78.401291"
     cy="6.8299913"
     r="0"
     fill="#5e4aa6"
     fill-rule="evenodd"
     stroke-width="0.26458"
     id="circle57" />
  <path
     id="path905"
     opacity="0.3"
     filter="url(#filter2761)"
     fill="#141414"
     enable-background="new"
     d="m 10.70815,1.1904502 c 4.405,0 5.0345,0.67282 5.0345,5.388 V 10.35455 c 0,4.7152 -0.62954,5.388 -5.0345,5.388 H 6.2249502 c -4.405,0 -5.0346,-0.6728 -5.0346,-5.388 V 6.5784502 c 0,-4.7152 0.62954,-5.388 5.0346,-5.388 z" />
  <path
     id="path907"
     fill="url(#linearGradient4673)"
     enable-background="new"
     d="m 10.70815,1.1161502 c 4.405,0 5.0345,0.67282 5.0345,5.388 V 10.28025 c 0,4.7152 -0.62954,5.388 -5.0345,5.388 H 6.2249502 c -4.405,0 -5.0346,-0.6728 -5.0346,-5.388 V 6.5041502 c 0,-4.7152 0.62954,-5.388 5.0346,-5.388 z"
     style="fill:url(#linearGradient4673)" />
  <path
     d="m 8.6421964,4.6166816 c -0.2824281,0 -0.5273886,0.019761 -0.7343077,0.05891 V 7.4650304 H 8.3569481 V 6.2780462 h 0.2811143 c 0.1509968,0 0.2653493,0.039011 0.3436414,0.117303 0.081088,0.0755 0.1412006,0.2082783 0.1803473,0.3984174 0.078291,0.3635057 0.1397409,0.5873788 0.1844811,0.6712638 H 9.8162618 C 9.7910949,7.4174963 9.7592915,7.3197124 9.7201456,7.171514 9.6949755,7.0820289 9.6541114,6.9196132 9.5981915,6.6847316 9.5254897,6.3827318 9.3927117,6.1952049 9.1997742,6.1225031 V 6.114235 C 9.3479723,6.0611101 9.468195,5.9758826 9.5604685,5.8584417 9.6639275,5.7270225 9.7160116,5.5744805 9.7160116,5.4011141 9.7160116,5.1634444 9.6374755,4.9777534 9.4808884,4.8435367 9.3047143,4.6925395 9.0252764,4.6166816 8.6421964,4.6166816 Z m 5.3768266,0.018086 v 2.8271619 h 0.419605 V 6.3881146 c 0,-0.48373 -0.0098,-0.8834245 -0.02946,-1.1993863 l 0.0124,-0.00413 c 0.125833,0.2880044 0.293614,0.6091514 0.503318,0.9642631 l 0.285249,0.4795479 V 5.7773114 l -0.6878,-1.1425435 z m -7.991086,0.0031 -0.910004,2.827162 H 5.5876626 L 5.8393219,6.6346064 H 6.757594 l 0.2645781,0.830424 H 7.5043039 L 6.5901656,4.6378684 Z m 4.181575,0 v 2.827162 h 0.419604 V 6.3912152 c 0,-0.4837385 -0.0099,-0.8834179 -0.02946,-1.1993863 l 0.01292,-0.00465 c 0.125813,0.2880057 0.293603,0.6096499 0.503318,0.9647799 l 0.779782,1.3130724 h 0.465596 v -2.827162 h -0.423738 v 1.0526281 c 1e-6,0.464148 0.01574,0.8558126 0.04651,1.1745824 l -0.0088,0.00413 C 11.835477,6.5476417 11.67488,6.2358782 11.493129,5.9338877 L 10.71283,4.6378684 Z m 2.752749,0 v 2.827162 h 0.452677 V 4.6378684 Z M 1.7621318,4.6383852 2.4499315,7.4650304 H 2.9325799 L 3.2844895,6.0894308 c 0.09228,-0.3606917 0.1582539,-0.6626002 0.1974001,-0.90587 h 0.00827 c 0.03076,0.2488315 0.08685,0.5507397 0.1679449,0.90587 L 3.9681551,7.4650304 H 4.4466695 L 5.2099155,4.6383852 H 4.7484539 l -0.3188372,1.3296085 -0.016536,0.071312 c -0.0755,0.3215648 -0.1369483,0.6247933 -0.1844813,0.910004 h -0.00878 C 4.1834645,6.6724649 4.1233492,6.350821 4.0394674,5.9845298 L 3.741817,4.6383852 H 3.2720874 L 2.944982,5.9721277 C 2.8387298,6.402745 2.7673988,6.7310843 2.7310458,6.9575777 h -0.00827 C 2.6640578,6.6164543 2.6007548,6.2894352 2.5336456,5.9762617 L 2.2442633,4.6383852 Z m 6.9219217,0.3224545 c 0.3858623,0.00281 0.5787643,0.1652301 0.5787646,0.4867825 0,0.1481952 -0.053423,0.268418 -0.1596771,0.3606943 C 8.9968864,5.8977945 8.8547415,5.9421558 8.6757854,5.9421558 H 8.3569481 V 4.9902947 c 0.0727,-0.019571 0.181702,-0.029455 0.3271054,-0.029455 z m -2.3961891,0.054259 h 0.00879 c 0.0699,0.2796302 0.1174581,0.4572735 0.142624,0.5327736 L 6.678014,6.2863142 H 5.918902 L 6.1540252,5.5478725 C 6.2155351,5.3129781 6.2598985,5.1353351 6.2878644,5.0150987 Z m -4.565006,4.4244489 v 1.1012034 l 0.060977,-0.191199 c 0.06151,-0.234875 0.106395,-0.412538 0.1343559,-0.5327737 h 0.00827 c 0.06991,0.2796227 0.1174631,0.4572847 0.1426242,0.5327737 L 2.307826,11.087477 H 1.7228584 v 0.348292 H 2.387921 l 0.2640614,0.830424 H 3.1346308 L 2.2199758,9.4395478 Z m 1.191635,0.0031 0.876415,1.6443114 v 1.182334 H 4.2441019 V 11.074041 L 5.166508,9.4426484 H 4.6549213 L 4.298361,10.184707 c -0.1090498,0.229289 -0.1929393,0.420839 -0.2516593,0.574631 h -0.00827 C 3.9741237,10.602751 3.8888954,10.411201 3.7826403,10.184707 L 3.4302141,9.4426484 Z m 7.3704646,0.052192 c -0.2991924,0 -0.5455048,0.068656 -0.7384418,0.205668 l 0.104901,0.3312394 C 9.819174,9.9171018 9.9995213,9.859669 10.192459,9.859669 c 0.145404,0 0.256259,0.034994 0.331756,0.104901 0.0755,0.067109 0.113169,0.155012 0.113169,0.264061 0,0.134218 -0.0633,0.240543 -0.189132,0.318838 -0.106254,0.06431 -0.230491,0.09663 -0.373096,0.09663 H 9.8653535 v 0.331239 H 10.07929 c 0.181754,0 0.330282,0.04086 0.444925,0.121954 0.134217,0.08948 0.201017,0.215051 0.201017,0.377231 0.0028,0.128624 -0.03889,0.234952 -0.125571,0.318837 -0.103459,0.103459 -0.250649,0.155026 -0.440791,0.155026 -0.2181022,0 -0.4190197,-0.05424 -0.603569,-0.163294 l -0.1049012,0.343641 c 0.1845593,0.123034 0.4263306,0.184482 0.7255232,0.184482 0.315978,0 0.567634,-0.0807 0.754977,-0.242875 0.176163,-0.15098 0.264062,-0.343882 0.264062,-0.578764 0,-0.181752 -0.05558,-0.334294 -0.167428,-0.457328 -0.111847,-0.123022 -0.25317,-0.200222 -0.423739,-0.230989 v -0.0083 c 0.329963,-0.123037 0.495051,-0.337026 0.495051,-0.641809 0,-0.1845487 -0.06732,-0.336575 -0.201535,-0.4568102 -0.148204,-0.1342173 -0.35231,-0.2015342 -0.612353,-0.2015342 z m 2.909842,0.00413 c -0.06711,0 -0.15367,0.00534 -0.259927,0.016536 -0.377475,0.041944 -0.682572,0.1760611 -0.914655,0.4025514 -0.310378,0.304796 -0.465595,0.714875 -0.465595,1.229358 0,0.34673 0.08842,0.627519 0.264578,0.842826 0.176151,0.215308 0.416603,0.322972 0.721389,0.322972 0.276809,0 0.501516,-0.09778 0.67488,-0.293517 0.167773,-0.184533 0.25166,-0.409758 0.25166,-0.675397 0,-0.265624 -0.07668,-0.478294 -0.230473,-0.637675 -0.151,-0.16218 -0.345222,-0.242874 -0.582898,-0.242874 -0.262852,0 -0.470146,0.09325 -0.621139,0.280597 h -0.0124 c 0.03635,-0.220906 0.126104,-0.405245 0.268712,-0.553444 0.16218,-0.170568 0.375653,-0.2742184 0.641292,-0.310569 0.09507,-0.014039 0.183488,-0.019383 0.264578,-0.016536 z M 6.3922489,9.5423819 V 9.9201293 H 7.6753494 L 6.534873,12.268777 H 7.0087366 L 8.1538638,9.836415 V 9.5423819 Z m 2.4597498,0.7270731 c -0.083885,0 -0.1525415,0.02913 -0.2056683,0.08785 -0.053127,0.05872 -0.07958,0.130048 -0.07958,0.213936 0,0.08668 0.02511,0.159351 0.075446,0.218071 0.053128,0.05593 0.1217832,0.08371 0.2056682,0.08371 0.086683,0 0.1566755,-0.02779 0.209802,-0.08371 0.053127,-0.05592 0.07958,-0.128593 0.07958,-0.218071 0,-0.08669 -0.026453,-0.158016 -0.07958,-0.213936 -0.050329,-0.05872 -0.1189845,-0.08785 -0.2056679,-0.08785 z m 3.6591363,0.529673 c 0.150996,0 0.271216,0.05157 0.360694,0.155026 0.08948,0.10346 0.134356,0.242108 0.134356,0.415471 h -5.17e-4 c 0,0.170567 -0.03901,0.310035 -0.117303,0.419087 -0.08389,0.120236 -0.198238,0.180347 -0.343641,0.180347 -0.176158,0 -0.312131,-0.07081 -0.407203,-0.213419 -0.08382,-0.128637 -0.126839,-0.293726 -0.129705,-0.49505 -0.0028,-0.05872 0.0084,-0.113478 0.03359,-0.163812 0.09787,-0.19853 0.254426,-0.29765 0.46973,-0.29765 z m -3.6632704,0.913105 c -0.083885,0 -0.1525414,0.02913 -0.2056682,0.08785 -0.053126,0.05872 -0.07958,0.130048 -0.07958,0.213936 0,0.08668 0.02511,0.15935 0.075446,0.21807 0.053128,0.05593 0.1217832,0.08423 0.2056682,0.08423 0.086684,0 0.1566752,-0.0283 0.209802,-0.08423 0.053127,-0.05592 0.07958,-0.128592 0.07958,-0.21807 0,-0.08669 -0.026453,-0.158016 -0.07958,-0.213936 -0.050329,-0.05872 -0.1189845,-0.08785 -0.205668,-0.08785 z"
     style="fill:#ffffff;fill-opacity:1;stroke:none;stroke-width:0.935548;stroke-linecap:round"
     id="rect910" />
  <path
     d="m 6.3250708,1.5146067 c -4.2088169,0 -4.8104644,0.6427645 -4.8104644,5.1479048 v 3.6079765 c 3e-7,4.505141 0.6017047,5.147905 4.8104644,5.147905 h 4.2833752 c 4.208721,0 4.809948,-0.642764 4.809948,-5.147905 V 6.6625115 c 0,-4.5051212 -0.601189,-5.1479048 -4.809948,-5.1479048 z"
     style="fill:none;fill-opacity:1;stroke:#cdebff;stroke-width:0.935548;stroke-linecap:round;stroke-opacity:1"
     id="rect957" />
</svg>

<?xml version="1.0" encoding="UTF-8"?>
<svg width="64" height="64" version="1.1" viewBox="0 0 16.933 16.933" xmlns="http://www.w3.org/2000/svg" xmlns:cc="http://creativecommons.org/ns#" xmlns:dc="http://purl.org/dc/elements/1.1/" xmlns:rdf="http://www.w3.org/1999/02/22-rdf-syntax-ns#">
 <defs>
  <style type="text/css"/>
  <style type="text/css"/>
  <style type="text/css"/>
  <filter id="filter1057" x="-.027" y="-.027" width="1.054" height="1.054" color-interpolation-filters="sRGB">
   <feGaussianBlur stdDeviation="0.61875"/>
  </filter>
  <linearGradient id="linearGradient1053" x1="-127" x2="-72" y1="60" y2="5" gradientTransform="matrix(.26458 0 0 .26458 34.792 -.13493)" gradientUnits="userSpaceOnUse">
   <stop stop-color="#a0b9cd" offset="0"/>
   <stop stop-color="#96b4c8" offset=".48567"/>
   <stop stop-color="#a0b9cd" offset="1"/>
  </linearGradient>
 </defs>
 <metadata>
  <rdf:RDF>
   <cc:Work rdf:about="">
    <dc:format>image/svg+xml</dc:format>
    <dc:type rdf:resource="http://purl.org/dc/dcmitype/StillImage"/>
    <dc:title/>
   </cc:Work>
  </rdf:RDF>
 </metadata>
 <rect transform="scale(.26458)" x="4.5" y="4.5" width="55" height="55" ry="15" fill="#141414" filter="url(#filter1057)" opacity=".3" stroke-linecap="round" stroke-width="2.7444"/>
 <rect x="1.1906" y="1.1906" width="14.552" height="14.552" ry="3.9687" fill="url(#linearGradient1053)" stroke-linecap="round" stroke-width=".72611"/>
 <g fill="#5e4aa6" stroke-width=".26458">
  <circle cx="-349.19" cy="-328.5" r="0"/>
  <circle cx="-58.266" cy="6.31" r="0" fill-rule="evenodd"/>
  <circle cx="-369.32" cy="-328" r="0"/>
  <circle cx="-78.401" cy="6.83" r="0" fill-rule="evenodd"/>
 </g>
 <path d="m8.6422 4.6167c-0.28243 0-0.52739 0.019761-0.73431 0.05891v2.7894h0.44906v-1.187h0.28111c0.151 0 0.26535 0.039011 0.34364 0.1173 0.081088 0.0755 0.1412 0.20828 0.18035 0.39842 0.078291 0.36351 0.13974 0.58738 0.18448 0.67126h0.46973c-0.025167-0.047534-0.05697-0.14532-0.096116-0.29352-0.02517-0.089485-0.066034-0.2519-0.12195-0.48678-0.072702-0.302-0.20548-0.48953-0.39842-0.56223v-0.0082681c0.1482-0.053125 0.26842-0.13835 0.36069-0.25579 0.10346-0.13142 0.15554-0.28396 0.15554-0.45733 0-0.23767-0.078536-0.42336-0.23512-0.55758-0.17617-0.151-0.45561-0.22686-0.83869-0.22686zm5.3768 0.018086v2.8272h0.4196v-1.0738c0-0.48373-0.0098-0.88342-0.02946-1.1994l0.0124-0.00413c0.12583 0.288 0.29361 0.60915 0.50332 0.96426l0.28525 0.47955v-0.8511l-0.6878-1.1425zm-7.9911 0.0031-0.91 2.8272h0.46973l0.25166-0.83042h0.91827l0.26458 0.83042h0.48213l-0.91414-2.8272zm4.1816 0v2.8272h0.4196v-1.0738c0-0.48374-0.0099-0.88342-0.02946-1.1994l0.01292-0.00465c0.12581 0.28801 0.2936 0.60965 0.50332 0.96478l0.77978 1.3131h0.4656v-2.8272h-0.42374v1.0526c1e-6 0.46415 0.01574 0.85581 0.04651 1.1746l-0.0088 0.00413c-0.13977-0.32157-0.30036-0.63333-0.48212-0.93532l-0.7803-1.296zm2.7527 0v2.8272h0.45268v-2.8272zm-11.2 5.176e-4 0.6878 2.8266h0.48265l0.35191-1.3756c0.09228-0.36069 0.15825-0.6626 0.1974-0.90587h0.00827c0.03076 0.24883 0.08685 0.55074 0.16794 0.90587l0.31005 1.3756h0.47851l0.76325-2.8266h-0.46146l-0.31884 1.3296-0.016536 0.071312c-0.0755 0.32156-0.13695 0.62479-0.18448 0.91h-0.00878c-0.036355-0.27684-0.09647-0.59849-0.18035-0.96478l-0.29765-1.3461h-0.46973l-0.32711 1.3337c-0.10625 0.43062-0.17758 0.75896-0.21394 0.98545h-0.00827c-0.058718-0.34112-0.12202-0.66814-0.18913-0.98132l-0.28938-1.3379zm6.9219 0.32245c0.38586 0.00281 0.57876 0.16523 0.57876 0.48678 0 0.1482-0.053423 0.26842-0.15968 0.36069-0.10625 0.089478-0.2484 0.13384-0.42736 0.13384h-0.31884v-0.95186c0.0727-0.019571 0.1817-0.029455 0.32711-0.029455zm-2.3962 0.054259h0.00879c0.0699 0.27963 0.11746 0.45727 0.14262 0.53277l0.23874 0.73844h-0.75911l0.23512-0.73844c0.06151-0.23489 0.10587-0.41254 0.13384-0.53277zm-4.565 4.4244v1.1012l0.060977-0.1912c0.06151-0.23488 0.1064-0.41254 0.13436-0.53277h0.00827c0.06991 0.27962 0.11746 0.45728 0.14262 0.53277l0.23874 0.73792h-0.58497v0.34829h0.66506l0.26406 0.83042h0.48265l-0.91466-2.8266zm1.1916 0.0031 0.87642 1.6443v1.1823h0.45319v-1.1953l0.92241-1.6314h-0.51159l-0.35656 0.74206c-0.10905 0.22929-0.19294 0.42084-0.25166 0.57463h-0.00827c-0.064308-0.15659-0.14954-0.34814-0.25579-0.57463l-0.35243-0.74206zm7.3705 0.052192c-0.29919 0-0.5455 0.068656-0.73844 0.20567l0.1049 0.33124c0.16776-0.11465 0.3481-0.17208 0.54104-0.17208 0.1454 0 0.25626 0.034994 0.33176 0.1049 0.0755 0.067109 0.11317 0.15501 0.11317 0.26406 0 0.13422-0.0633 0.24054-0.18913 0.31884-0.10625 0.06431-0.23049 0.09663-0.3731 0.09663h-0.2098v0.33124h0.21394c0.18175 0 0.33028 0.04086 0.44492 0.12195 0.13422 0.08948 0.20102 0.21505 0.20102 0.37723 0.0028 0.12862-0.03889 0.23495-0.12557 0.31884-0.10346 0.10346-0.25065 0.15503-0.44079 0.15503-0.2181 0-0.41902-0.05424-0.60357-0.16329l-0.1049 0.34364c0.18456 0.12303 0.42633 0.18448 0.72552 0.18448 0.31598 0 0.56763-0.0807 0.75498-0.24288 0.17616-0.15098 0.26406-0.34388 0.26406-0.57876 0-0.18175-0.05558-0.33429-0.16743-0.45733-0.11185-0.12302-0.25317-0.20022-0.42374-0.23099v-0.0083c0.32996-0.12304 0.49505-0.33703 0.49505-0.64181 0-0.18455-0.06732-0.33658-0.20154-0.45681-0.1482-0.13422-0.35231-0.20153-0.61235-0.20153zm2.9098 0.00413c-0.06711 0-0.15367 0.00534-0.25993 0.016536-0.37748 0.041944-0.68257 0.17606-0.91466 0.40255-0.31038 0.3048-0.4656 0.71488-0.4656 1.2294 0 0.34673 0.08842 0.62752 0.26458 0.84283 0.17615 0.21531 0.4166 0.32297 0.72139 0.32297 0.27681 0 0.50152-0.09778 0.67488-0.29352 0.16777-0.18453 0.25166-0.40976 0.25166-0.6754 0-0.26562-0.07668-0.47829-0.23047-0.63768-0.151-0.16218-0.34522-0.24287-0.5829-0.24287-0.26285 0-0.47015 0.09325-0.62114 0.2806h-0.0124c0.03635-0.22091 0.1261-0.40524 0.26871-0.55344 0.16218-0.17057 0.37565-0.27422 0.64129-0.31057 0.09507-0.014039 0.18349-0.019383 0.26458-0.016536zm-6.8026 0.043412v0.37775h1.2831l-1.1405 2.3486h0.47386l1.1451-2.4324v-0.29403zm2.4597 0.72707c-0.083885 0-0.15254 0.02913-0.20567 0.08785-0.053127 0.05872-0.07958 0.13005-0.07958 0.21394 0 0.08668 0.02511 0.15935 0.075446 0.21807 0.053128 0.05593 0.12178 0.08371 0.20567 0.08371 0.086683 0 0.15668-0.02779 0.2098-0.08371 0.053127-0.05592 0.07958-0.12859 0.07958-0.21807 0-0.08669-0.026453-0.15802-0.07958-0.21394-0.050329-0.05872-0.11898-0.08785-0.20567-0.08785zm3.6591 0.52967c0.151 0 0.27122 0.05157 0.36069 0.15503 0.08948 0.10346 0.13436 0.24211 0.13436 0.41547h-5.17e-4c0 0.17057-0.03901 0.31004-0.1173 0.41909-0.08389 0.12024-0.19824 0.18035-0.34364 0.18035-0.17616 0-0.31213-0.07081-0.4072-0.21342-0.08382-0.12864-0.12684-0.29373-0.1297-0.49505-0.0028-0.05872 0.0084-0.11348 0.03359-0.16381 0.09787-0.19853 0.25443-0.29765 0.46973-0.29765zm-3.6633 0.9131c-0.083885 0-0.15254 0.02913-0.20567 0.08785-0.053126 0.05872-0.07958 0.13005-0.07958 0.21394 0 0.08668 0.02511 0.15935 0.075446 0.21807 0.053128 0.05593 0.12178 0.08423 0.20567 0.08423 0.086684 0 0.15668-0.0283 0.2098-0.08423 0.053127-0.05592 0.07958-0.12859 0.07958-0.21807 0-0.08669-0.026453-0.15802-0.07958-0.21394-0.050329-0.05872-0.11898-0.08785-0.20567-0.08785z" fill="#fff"/>
 <g transform="matrix(.26458 0 0 .26458 -18.54 2.4476e-8)" fill="#5e4aa6">
  <g transform="translate(-80.134,-57.985)" image-rendering="optimizeSpeed">
   <circle cx="-1248.7" cy="-1241.6" r="0"/>
   <circle cx="-149.15" cy="23.855" r="0" fill-rule="evenodd"/>
   <circle cx="-1248.7" cy="-1241.6" r="0"/>
   <circle cx="-149.15" cy="23.855" r="0" fill-rule="evenodd"/>
  </g>
  <circle cx="-1248.7" cy="-1241.6" r="0"/>
  <circle cx="-149.15" cy="23.855" r="0" fill-rule="evenodd"/>
  <g transform="matrix(3.7796,0,0,3.7796,5.8415e-4,-1.7177e-4)" stroke-width=".26458">
   <g transform="translate(-.0272 .0065001)">
    <circle cx="-330.35" cy="-328.38" r="0"/>
    <circle cx="-312.11" cy="-326.25" r="0"/>
    <circle cx="-306.02" cy="-333.07" r="0"/>
    <circle cx="-308.84" cy="-326.01" r="0"/>
    <circle cx="-330.35" cy="-328.38" r="0"/>
    <circle cx="-312.11" cy="-326.25" r="0"/>
    <circle cx="-306.02" cy="-333.07" r="0"/>
    <circle cx="-308.84" cy="-326.01" r="0"/>
   </g>
   <g transform="translate(-.02705 .0064503)">
    <circle cx="-330.35" cy="-328.38" r="0"/>
    <circle cx="-312.11" cy="-326.25" r="0"/>
    <circle cx="-306.02" cy="-333.07" r="0"/>
    <circle cx="-308.84" cy="-326.01" r="0"/>
   </g>
  </g>
  <g transform="translate(-79.199,-30.995)">
   <circle cx="-1248.7" cy="-1241.6" r="0"/>
   <circle cx="-1140.3" cy="-1301.8" r="0"/>
   <circle cx="-1158.1" cy="-1246" r="0"/>
  </g>
  <circle cx="-1236.5" cy="-1298.7" r="0"/>
  <circle cx="-136.95" cy="-33.178" r="0" fill-rule="evenodd"/>
 </g>
 <path transform="scale(.26458)" d="m19.5 4.5c-8.31 0-15 6.69-15 15v25c0 8.31 6.69 15 15 15h25c8.31 0 15-6.69 15-15v-25c0-8.31-6.69-15-15-15h-25zm0.087891 2.8105h24.824c6.802 0 12.277 5.4754 12.277 12.277v24.824c0 6.802-5.4754 12.277-12.277 12.277h-24.824c-6.802 0-12.277-5.4754-12.277-12.277v-24.824c0-6.802 5.4754-12.277 12.277-12.277z" fill="#cdebff"/>
</svg>
